X:1
T:Go to the Devil and Shake Yourself. JGi.001
M:6/8
L:1/8
Q:3/8=120
S:Joshua Gibbons MS,1823,Tealby,Lincs.
O:Tealby,Lincolnshire
R:Jig
Z:VMP/R.Greig, 2009
K:D
A|d dcB|ABA AFA|Add d2e|fdB B2A|
Add dcB|ABA AFA|dfd ege| fdd d3:|
|:afd dcd|BGG G2 z|bge edd| cAA A2 z|
Add dcB| AAA ABc|dfd ege|fdd d2:|

